src/assets/filled/Routing.svg

<svg width="24" height="24" viewBox="0 0 24 24"  xmlns="http://www.w3.org/2000/svg">
<path d="M8.88003 4.60022C8.08003 1.14022 2.87002 1.13022 2.07002 4.60022C1.60002 6.63022 2.89003 8.35022 4.01003 9.42022C4.83003 10.1902 6.12003 10.1902 6.94003 9.42022C8.06003 8.35022 9.34003 6.63022 8.88003 4.60022ZM5.51003 6.20022C4.96003 6.20022 4.51003 5.75022 4.51003 5.20022C4.51003 4.65022 4.95003 4.20022 5.50003 4.20022H5.51003C6.07003 4.20022 6.51003 4.65022 6.51003 5.20022C6.51003 5.75022 6.07003 6.20022 5.51003 6.20022Z" />
<path d="M21.91 16.6002C21.11 13.1402 15.88 13.1302 15.07 16.6002C14.6 18.6302 15.89 20.3502 17.02 21.4202C17.84 22.1902 19.14 22.1902 19.96 21.4202C21.09 20.3502 22.38 18.6302 21.91 16.6002ZM18.53 18.2002C17.98 18.2002 17.53 17.7502 17.53 17.2002C17.53 16.6502 17.97 16.2002 18.52 16.2002H18.53C19.08 16.2002 19.53 16.6502 19.53 17.2002C19.53 17.7502 19.08 18.2002 18.53 18.2002Z" />
<path d="M11.9999 19.75H9.31994C8.15994 19.75 7.14994 19.05 6.74994 17.97C6.33994 16.89 6.63994 15.7 7.50994 14.93L15.4999 7.94C15.9799 7.52 15.9899 6.95 15.8499 6.56C15.6999 6.17 15.3199 5.75 14.6799 5.75H11.9999C11.5899 5.75 11.2499 5.41 11.2499 5C11.2499 4.59 11.5899 4.25 11.9999 4.25H14.6799C15.8399 4.25 16.8499 4.95 17.2499 6.03C17.6599 7.11 17.3599 8.3 16.4899 9.07L8.49994 16.06C8.01994 16.48 8.00994 17.05 8.14994 17.44C8.29994 17.83 8.67994 18.25 9.31994 18.25H11.9999C12.4099 18.25 12.7499 18.59 12.7499 19C12.7499 19.41 12.4099 19.75 11.9999 19.75Z" />
</svg>

<?xml version="1.0" encoding="UTF-8"?>
<svg width="24" height="24" viewBox="0 0 24 24" xmlns="http://www.w3.org/2000/svg">
 <path d="m8.88 4.6002c-0.8-3.46-6.01-3.47-6.81 0-0.47 2.03 0.82001 3.75 1.94 4.82 0.82 0.76998 2.11 0.76998 2.93 0 1.12-1.07 2.4-2.79 1.94-4.82zm-3.37 1.6c-0.55 0-1-0.45-1-1s0.44-1 0.99-1h0.01c0.56 0 1 0.45 1 1s-0.44 1-1 1z"/>
 <path d="m21.91 16.6c-0.8-3.46-6.03-3.47-6.84 0-0.47 2.03 0.82 3.75 1.95 4.82 0.82 0.77 2.12 0.77 2.94 0 1.13-1.07 2.42-2.79 1.95-4.82zm-3.38 1.6c-0.55 0-1-0.45-1-1s0.44-1 0.99-1h0.01c0.55 0 1 0.45 1 1s-0.45 1-1 1z"/>
 <path d="m12 19.75h-2.68c-1.16 0-2.17-0.7-2.57-1.78-0.41-1.08-0.11-2.27 0.76-3.04l7.99-6.99c0.48-0.42 0.49-0.99 0.35-1.38-0.15-0.39-0.53-0.81-1.17-0.81h-2.68c-0.41 0-0.75-0.34-0.75-0.75s0.34-0.75 0.75-0.75h2.68c1.16 0 2.17 0.7 2.57 1.78 0.41 1.08 0.11 2.27-0.76 3.04l-7.99 6.99c-0.48 0.42-0.49 0.99-0.35 1.38 0.15 0.39 0.53 0.81 1.17 0.81h2.68c0.41 0 0.75 0.34 0.75 0.75s-0.34 0.75-0.75 0.75z"/>
</svg>
